src/hyperwallet.svg

<svg xmlns="http://www.w3.org/2000/svg" class="dibsvg-svg dibsvg-hyperwallet" viewBox="0 0 200 250">
    <path d="M124.578947,52.2540984 C124.578947,39.1865822 113.617023,28.5163934 100.001026,28.5163934 C86.3838637,28.5163934 75.4210526,39.1867268 75.4210526,52.2540984 C75.4210526,65.3208576 86.3842489,75.9918033 100.001026,75.9918033 C113.616637,75.9918033 124.578947,65.3210022 124.578947,52.2540984 Z M131.578947,52.2540984 C131.578947,69.2295977 117.441294,82.9918033 100.001026,82.9918033 C82.5597317,82.9918033 68.4210526,69.2295977 68.4210526,52.2540984 C68.4210526,35.2776088 82.5597317,21.5163934 100.001026,21.5163934 C117.441294,21.5163934 131.578947,35.2776088 131.578947,52.2540984 Z M117.841825,97.6669932 L124.84,97.8268443 L117.84,97.8268443 C117.84,97.9168759 117.842633,97.9952095 117.89375,98.3348427 L117.836467,97.9542409 L117.835705,97.934962 L117.841825,97.6669932 Z M160.784886,135.83803 C160.363711,133.243907 159.726597,129.794154 158.874974,125.5 L146.498271,125.5 C146.89144,132.224773 146.268168,137.603461 144.601398,141.764688 C142.04899,148.136983 136.938809,151.703893 130.737895,151.703893 C125.256787,151.703893 120.975829,149.158256 118.783021,144.572012 C117.375661,141.628526 116.992632,138.551306 116.992632,133.951844 L117.489817,113.23725 L117.583112,108.569967 L117.748141,101.768428 L117.835705,97.934962 C117.686304,94.1572599 114.674341,91.3165984 110.98,91.3165984 C107.283171,91.3165984 104.272196,94.1454653 104.112605,97.6147036 C104.101395,97.8113148 104.09579,117.36222 104.095789,156.267418 C104.095789,158.798616 103.263377,161.252116 101.716849,163.294423 C94.6570952,172.543142 90.7084211,185.228199 90.7084211,199.020492 C90.7084211,211.659359 91.5383962,219.840821 93.2736468,225.420074 C93.6472842,226.69346 93.8137997,227.927888 93.78,229.149099 L93.78,243 L136.732632,243 L136.732632,228.866803 C136.732632,227.683538 136.909925,226.503521 137.281258,225.362772 L160.813773,141.786382 C160.811867,141.791766 161.010341,140.981603 161.105633,140.602064 C161.205417,140.2069 161.266174,139.97233 161.322495,139.763128 C161.243313,138.873932 161.06488,137.562583 160.784886,135.83803 Z M168.255706,141.016433 C168.137812,141.249015 167.645263,143.336066 167.576842,143.592213 L143.971579,227.429303 C143.806316,227.894467 143.732632,228.381148 143.732632,228.866803 L143.732632,250 L86.78,250 L86.78,229.028689 C86.8031579,228.520492 86.7315789,227.984631 86.5894737,227.498975 C84.6073684,221.126025 83.7084211,212.343238 83.7084211,199.020492 C83.7084211,183.75 88.1221053,169.567623 96.1526316,159.047131 C96.7663158,158.23668 97.0957895,157.265369 97.0957895,156.267418 L97.0957895,97.9170082 C97.0957895,97.7079918 97.0957895,97.5020492 97.12,97.2930328 C97.4515789,90.085041 103.543158,84.3165984 110.98,84.3165984 C118.442105,84.3165984 124.532632,90.1331967 124.815789,97.2930328 C124.84,97.4538934 124.84,97.6403689 124.84,97.8268443 L124.746316,101.928279 L124.581053,108.739754 L124.488421,113.377049 L123.992632,133.951844 C123.992632,139.884221 124.692632,144.703893 130.737895,144.703893 C136.761053,144.703893 141.694737,138.659836 138.721053,118.5 L164.6,118.5 C167.507313,132.616147 168.725882,140.121624 168.255706,141.016433 Z M193,107.885246 L193,7 L7,7 L7,107.885246 L85.3778947,107.885246 L85.3778947,102.778689 L40.4568421,102.778689 C35.462503,102.778689 31.3288582,98.8559568 31.1043374,93.8859949 C29.8791055,93.8147867 28.5793643,93.8002049 25.0957895,93.8002049 C19.961381,93.8002049 15.7347368,89.6532738 15.7347368,84.4836066 L15.7347368,33.4959016 C15.7347368,28.328573 19.9591674,24.1762295 25.0957895,24.1762295 C25.6356118,24.1762295 26.0907001,24.1776092 26.9215963,24.181132 C29.0833067,24.190297 30.2060238,24.1844675 31.0076751,24.1462608 C31.0633164,23.452404 31.0947368,22.5505766 31.0947368,21.4211066 C31.0947368,18.9491964 32.0783408,16.6360977 33.7505756,14.9079355 C35.7257543,13.0423603 38.0522642,12.1034836 40.4568421,12.1034836 L159.526316,12.1034836 C164.66219,12.1034836 168.889474,16.2497578 168.889455,21.4048871 C168.892091,22.5426934 168.926441,23.4491011 168.985009,24.1440585 C169.791833,24.1840473 170.917881,24.1902743 173.117336,24.1810557 C173.944975,24.1775867 174.39764,24.1762295 174.934737,24.1762295 C180.06987,24.1762295 184.297895,28.3270018 184.297895,33.4959016 L184.297895,84.4836066 C184.297895,89.6548495 180.067661,93.8002049 174.934737,93.8002049 C173.969128,93.8002049 173.138149,93.7936716 171.806019,93.7784531 C170.434017,93.7627791 169.539913,93.7553392 168.884769,93.7584285 C168.725893,98.7892733 164.563731,102.778689 159.526316,102.778689 L135.357992,102.778689 L135.314104,107.885246 L193,107.885246 Z M200,114.885246 L128.253684,114.885246 L128.417895,95.7786885 L159.526316,95.7786885 C160.826316,95.7786885 161.889474,94.7346311 161.889474,93.460041 C161.889474,85.8029225 164.263158,86.8002049 174.934737,86.8002049 C176.232632,86.8002049 177.297895,85.7571721 177.297895,84.4836066 L177.297895,33.4959016 C177.297895,32.2223361 176.232632,31.1762295 174.934737,31.1762295 C164.286316,31.1762295 161.913684,31.869877 161.889474,21.4211066 C161.889474,20.1465164 160.826316,19.1034836 159.526316,19.1034836 L40.4568421,19.1034836 C39.8442105,19.1034836 39.2273684,19.3565574 38.7810526,19.7756148 C38.3547368,20.2161885 38.0947368,20.7961066 38.0947368,21.4211066 C38.0947368,31.8739754 35.7442105,31.1762295 25.0957895,31.1762295 C23.7978947,31.1762295 22.7347368,32.2223361 22.7347368,33.4959016 L22.7347368,84.4836066 C22.7347368,85.7571721 23.7978947,86.8002049 25.0957895,86.8002049 C35.7452632,86.8002049 38.0947368,86.8002049 38.0947368,93.460041 C38.0947368,94.7346311 39.1578947,95.7786885 40.4568421,95.7786885 L92.3778947,95.7786885 L92.3778947,114.885246 L0,114.885246 L0,0 L200,0 L200,114.885246 Z M59.7382147,124.827869 C56.6545156,124.827869 54.0328043,127.506344 54.0328043,130.818652 L54.0328043,133.382675 C54.0328043,136.670553 56.6556908,139.347723 59.7382147,139.347723 L85.2338516,139.347723 L85.2338516,124.827869 L59.7382147,124.827869 Z M92.2338516,117.827869 L92.2338516,146.347723 L59.7382147,146.347723 C52.7556153,146.347723 47.0328043,140.503158 47.0328043,133.382675 L47.0328043,130.818652 C47.0328043,123.668371 52.7595978,117.827869 59.7382147,117.827869 L92.2338516,117.827869 Z M69.1074597,156.938011 C66.02509,156.938011 63.4007218,159.614958 63.4007218,162.901705 L63.4007218,165.465728 C63.4007218,168.753906 66.0238811,171.430776 69.1074597,171.430776 L76.2794085,171.430776 L81.5414311,156.938011 L69.1074597,156.938011 Z M69.1074597,149.938011 L91.5300996,149.938011 L81.1849672,178.430776 L69.1074597,178.430776 C62.1248603,178.430776 56.4007218,172.587565 56.4007218,165.465728 L56.4007218,162.901705 C56.4007218,155.778513 62.1288428,149.938011 69.1074597,149.938011 Z"/>
</svg>

<svg xmlns="http://www.w3.org/2000/svg" class="dibsvg-svg dibsvg-hyperwallet" viewBox="0 0 200 250">
    <path d="M124.579 52.254c0-13.067-10.962-23.738-24.578-23.738-13.617 0-24.58 10.67-24.58 23.738 0 13.067 10.963 23.738 24.58 23.738 13.616 0 24.578-10.671 24.578-23.738zm7 0c0 16.976-14.138 30.738-31.578 30.738-17.441 0-31.58-13.762-31.58-30.738s14.139-30.738 31.58-30.738c17.44 0 31.578 13.762 31.578 30.738zm-13.737 45.413l6.998.16h-7c0 .09.003.168.054.508l-.058-.38v-.02l.006-.268zm42.943 38.171c-.421-2.594-1.058-6.044-1.91-10.338h-12.377c.393 6.725-.23 12.103-1.897 16.265-2.552 6.372-7.662 9.939-13.863 9.939-5.481 0-9.762-2.546-11.955-7.132-1.407-2.943-1.79-6.02-1.79-10.62l.497-20.715.093-4.667.165-6.802.088-3.833c-.15-3.778-3.162-6.618-6.856-6.618-3.697 0-6.708 2.828-6.867 6.298-.012.196-.017 19.747-.017 58.652 0 2.532-.833 4.985-2.38 7.027-7.059 9.25-11.008 21.934-11.008 35.726 0 12.64.83 20.82 2.566 26.4.373 1.273.54 2.508.506 3.73V243h42.953v-14.133c0-1.183.177-2.363.548-3.504l23.533-83.577c-.002.006.196-.804.292-1.184.1-.395.16-.63.216-.839-.079-.89-.257-2.2-.537-3.925zm7.47 5.178c-.117.233-.61 2.32-.678 2.576l-23.605 83.837a4.285 4.285 0 0 0-.24 1.438V250H86.78v-20.971a4.78 4.78 0 0 0-.19-1.53c-1.983-6.373-2.882-15.156-2.882-28.479 0-15.27 4.414-29.452 12.445-39.973.613-.81.943-1.782.943-2.78v-58.35c0-.209 0-.415.024-.624.332-7.208 6.423-12.976 13.86-12.976 7.462 0 13.553 5.816 13.836 12.976.024.16.024.347.024.534l-.094 4.101-.165 6.812-.093 4.637-.495 20.575c0 5.932.7 10.752 6.745 10.752 6.023 0 10.957-6.044 7.983-26.204H164.6c2.907 14.116 4.126 21.622 3.656 22.516zM193 107.886V7H7v100.885h78.378v-5.106H40.457c-4.994 0-9.128-3.923-9.353-8.893-1.225-.071-2.525-.086-6.008-.086-5.135 0-9.361-4.147-9.361-9.316V33.496c0-5.167 4.224-9.32 9.36-9.32.54 0 .996.002 1.827.005 2.161.01 3.284.003 4.086-.035a35.15 35.15 0 0 0 .087-2.725c0-2.472.983-4.785 2.656-6.513 1.975-1.866 4.301-2.805 6.706-2.805h119.07c5.135 0 9.362 4.147 9.362 9.302.003 1.138.037 2.044.096 2.74.807.039 1.933.045 4.132.036.828-.003 1.28-.005 1.818-.005 5.135 0 9.363 4.151 9.363 9.32v50.988c0 5.17-4.23 9.316-9.363 9.316-.966 0-1.797-.006-3.129-.022a198.45 198.45 0 0 0-2.921-.02c-.16 5.031-4.321 9.02-9.359 9.02h-24.168l-.044 5.107H193zm7 7h-71.746l.164-19.107h31.108c1.3 0 2.363-1.044 2.363-2.319 0-7.657 2.374-6.66 13.046-6.66 1.298 0 2.363-1.043 2.363-2.316V33.496c0-1.274-1.065-2.32-2.363-2.32-10.649 0-13.021.694-13.046-9.755 0-1.274-1.063-2.318-2.363-2.318H40.456c-.612 0-1.229.254-1.675.673a2.368 2.368 0 0 0-.686 1.645c0 10.453-2.35 9.755-13 9.755-1.297 0-2.36 1.046-2.36 2.32v50.988c0 1.273 1.063 2.316 2.36 2.316 10.65 0 13 0 13 6.66 0 1.275 1.063 2.319 2.362 2.319h51.92v19.106H0V0h200v114.885zm-140.262 9.942c-3.083 0-5.705 2.678-5.705 5.99v2.565c0 3.288 2.623 5.965 5.705 5.965h25.496v-14.52H59.738zm32.496-7v28.52H59.738c-6.982 0-12.705-5.845-12.705-12.965v-2.564c0-7.15 5.727-12.991 12.705-12.991h32.496zm-23.127 39.11c-3.082 0-5.706 2.677-5.706 5.964v2.564c0 3.288 2.623 5.965 5.706 5.965h7.172l5.262-14.493H69.107zm0-7H91.53l-10.345 28.493H69.107c-6.982 0-12.706-5.843-12.706-12.965v-2.564c0-7.123 5.728-12.964 12.706-12.964z"/>
</svg>
